static/img/kroki/dd93b9d698dbe1c91b62571c20c22d86.svg

<?xml version="1.0" encoding="us-ascii" standalone="no"?><svg xmlns="http://www.w3.org/2000/svg" xmlns:xlink="http://www.w3.org/1999/xlink" contentStyleType="text/css" height="899px" preserveAspectRatio="none" style="width:323px;height:899px;" version="1.1" viewBox="0 0 323 899" width="323px" zoomAndPan="magnify"><defs/><g><!--class azure_network_ip_allocation--><g id="elem_azure_network_ip_allocation"><rect codeLine="23" fill="#3D176E" height="231.8672" id="azure_network_ip_allocation" rx="2.5" ry="2.5" style="stroke:#000D19;stroke-width:0.5;" width="309" x="7" y="660.14"/><ellipse cx="34.6" cy="680.0345" fill="#ADD1B2" rx="11" ry="11" style="stroke:#181818;stroke-width:1.0;"/><path d="M37.5688,685.6752 Q36.9906,685.972 36.35,686.1127 Q35.7094,686.2689 35.0063,686.2689 Q32.5063,686.2689 31.1781,684.6283 Q29.8656,682.972 29.8656,679.847 Q29.8656,676.722 31.1781,675.0658 Q32.5063,673.4095 35.0063,673.4095 Q35.7094,673.4095 36.35,673.5658 Q37.0063,673.722 37.5688,674.0189 L37.5688,676.7377 Q36.9438,676.1595 36.35,675.8939 Q35.7563,675.6127 35.1313,675.6127 Q33.7875,675.6127 33.1,676.6908 Q32.4125,677.7533 32.4125,679.847 Q32.4125,681.9408 33.1,683.0189 Q33.7875,684.0814 35.1313,684.0814 Q35.7563,684.0814 36.35,683.8158 Q36.9438,683.5345 37.5688,682.9564 L37.5688,685.6752 Z " fill="#000000"/><text fill="#D9B8FF" font-family="Helvetica" font-size="17" lengthAdjust="spacing" textLength="239" x="56.4" y="685.9198">azure_network_ip_allocation</text><line style="stroke:#000D19;stroke-width:0.5;" x1="8" x2="315" y1="699.9291" y2="699.9291"/><text fill="#D9B8FF" font-family="sans-serif" font-size="14" font-weight="bold" lengthAdjust="spacing" textLength="116" x="18" y="721.9242">allocation_tags</text><text fill="#D9B8FF" font-family="sans-serif" font-size="14" lengthAdjust="spacing" textLength="171" x="134" y="721.9242">: dictionary[string, string]</text><text fill="#D9B8FF" font-family="sans-serif" font-size="14" font-weight="bold" lengthAdjust="spacing" textLength="140" x="18" y="748.2211">ipam_allocation_id</text><text fill="#D9B8FF" font-family="sans-serif" font-size="14" lengthAdjust="spacing" textLength="48" x="158" y="748.2211">: string</text><text fill="#D9B8FF" font-family="sans-serif" font-size="14" font-weight="bold" lengthAdjust="spacing" textLength="46" x="18" y="774.5179">prefix</text><text fill="#D9B8FF" font-family="sans-serif" font-size="14" lengthAdjust="spacing" textLength="48" x="64" y="774.5179">: string</text><text fill="#D9B8FF" font-family="sans-serif" font-size="14" font-weight="bold" lengthAdjust="spacing" textLength="103" x="18" y="800.8148">prefix_length</text><text fill="#D9B8FF" font-family="sans-serif" font-size="14" lengthAdjust="spacing" textLength="44" x="121" y="800.8148">: int64</text><text fill="#D9B8FF" font-family="sans-serif" font-size="14" font-weight="bold" lengthAdjust="spacing" textLength="88" x="18" y="827.1117">prefix_type</text><text fill="#D9B8FF" font-family="sans-serif" font-size="14" lengthAdjust="spacing" textLength="48" x="106" y="827.1117">: string</text><text fill="#D9B8FF" font-family="sans-serif" font-size="14" font-weight="bold" lengthAdjust="spacing" textLength="55" x="18" y="853.4086">subnet</text><text fill="#D9B8FF" font-family="sans-serif" font-size="14" lengthAdjust="spacing" textLength="48" x="73" y="853.4086">: string</text><text fill="#D9B8FF" font-family="sans-serif" font-size="14" font-weight="bold" lengthAdjust="spacing" textLength="122" x="18" y="879.7054">virtual_network</text><text fill="#D9B8FF" font-family="sans-serif" font-size="14" lengthAdjust="spacing" textLength="48" x="140" y="879.7054">: string</text></g><!--class microsoft_resource--><g id="elem_microsoft_resource"><rect codeLine="32" fill="#3D176E" height="100.3828" id="microsoft_resource" rx="2.5" ry="2.5" style="stroke:#000D19;stroke-width:0.5;" width="214" x="54.5" y="438.76"/><ellipse cx="75.8" cy="458.6545" fill="#ADD1B2" rx="11" ry="11" style="stroke:#181818;stroke-width:1.0;"/><path d="M78.7688,464.2952 Q78.1906,464.592 77.55,464.7327 Q76.9094,464.8889 76.2063,464.8889 Q73.7063,464.8889 72.3781,463.2483 Q71.0656,461.592 71.0656,458.467 Q71.0656,455.342 72.3781,453.6858 Q73.7063,452.0295 76.2063,452.0295 Q76.9094,452.0295 77.55,452.1858 Q78.2063,452.342 78.7688,452.6389 L78.7688,455.3577 Q78.1438,454.7795 77.55,454.5139 Q76.9563,454.2327 76.3313,454.2327 Q74.9875,454.2327 74.3,455.3108 Q73.6125,456.3733 73.6125,458.467 Q73.6125,460.5608 74.3,461.6389 Q74.9875,462.7014 76.3313,462.7014 Q76.9563,462.7014 77.55,462.4358 Q78.1438,462.1545 78.7688,461.5764 L78.7688,464.2952 Z " fill="#000000"/><text fill="#D9B8FF" font-family="Helvetica" font-size="17" lengthAdjust="spacing" textLength="158" x="96.2" y="464.5398">microsoft_resource</text><line style="stroke:#000D19;stroke-width:0.5;" x1="55.5" x2="267.5" y1="478.5491" y2="478.5491"/><text fill="#D9B8FF" font-family="sans-serif" font-size="14" font-weight="bold" lengthAdjust="spacing" textLength="35" x="65.5" y="500.5442">etag</text><text fill="#D9B8FF" font-family="sans-serif" font-size="14" lengthAdjust="spacing" textLength="48" x="100.5" y="500.5442">: string</text><text fill="#D9B8FF" font-family="sans-serif" font-size="14" font-weight="bold" lengthAdjust="spacing" textLength="144" x="65.5" y="526.8411">provisioning_state</text><text fill="#D9B8FF" font-family="sans-serif" font-size="14" lengthAdjust="spacing" textLength="48" x="209.5" y="526.8411">: string</text></g><!--class resource--><g id="elem_resource"><rect codeLine="36" fill="#3D176E" height="310.7578" id="resource" rx="2.5" ry="2.5" style="stroke:#000D19;stroke-width:0.5;" width="227" x="48" y="7"/><ellipse cx="116.75" cy="26.8945" fill="#ADD1B2" rx="11" ry="11" style="stroke:#181818;stroke-width:1.0;"/><path d="M119.7188,32.5352 Q119.1406,32.832 118.5,32.9727 Q117.8594,33.1289 117.1563,33.1289 Q114.6563,33.1289 113.3281,31.4883 Q112.0156,29.832 112.0156,26.707 Q112.0156,23.582 113.3281,21.9258 Q114.6563,20.2695 117.1563,20.2695 Q117.8594,20.2695 118.5,20.4258 Q119.1563,20.582 119.7188,20.8789 L119.7188,23.5977 Q119.0938,23.0195 118.5,22.7539 Q117.9063,22.4727 117.2813,22.4727 Q115.9375,22.4727 115.25,23.5508 Q114.5625,24.6133 114.5625,26.707 Q114.5625,28.8008 115.25,29.8789 Q115.9375,30.9414 117.2813,30.9414 Q117.9063,30.9414 118.5,30.6758 Q119.0938,30.3945 119.7188,29.8164 L119.7188,32.5352 Z " fill="#000000"/><text fill="#D9B8FF" font-family="Helvetica" font-size="17" lengthAdjust="spacing" textLength="71" x="142.25" y="32.7798">resource</text><line style="stroke:#000D19;stroke-width:0.5;" x1="49" x2="274" y1="46.7891" y2="46.7891"/><text fill="#D9B8FF" font-family="sans-serif" font-size="14" font-weight="bold" lengthAdjust="spacing" textLength="29" x="59" y="68.7842">age</text><text fill="#D9B8FF" font-family="sans-serif" font-size="14" lengthAdjust="spacing" textLength="66" x="88" y="68.7842">: duration</text><text fill="#D9B8FF" font-family="sans-serif" font-size="14" font-weight="bold" lengthAdjust="spacing" textLength="43" x="59" y="95.0811">atime</text><text fill="#D9B8FF" font-family="sans-serif" font-size="14" lengthAdjust="spacing" textLength="70" x="102" y="95.0811">: datetime</text><text fill="#D9B8FF" font-family="sans-serif" font-size="14" font-weight="bold" lengthAdjust="spacing" textLength="43" x="59" y="121.3779">ctime</text><text fill="#D9B8FF" font-family="sans-serif" font-size="14" lengthAdjust="spacing" textLength="70" x="102" y="121.3779">: datetime</text><text fill="#D9B8FF" font-family="sans-serif" font-size="14" font-weight="bold" lengthAdjust="spacing" textLength="14" x="59" y="147.6748">id</text><text fill="#D9B8FF" font-family="sans-serif" font-size="14" lengthAdjust="spacing" textLength="48" x="73" y="147.6748">: string</text><text fill="#D9B8FF" font-family="sans-serif" font-size="14" font-weight="bold" lengthAdjust="spacing" textLength="33" x="59" y="173.9717">kind</text><text fill="#D9B8FF" font-family="sans-serif" font-size="14" lengthAdjust="spacing" textLength="48" x="92" y="173.9717">: string</text><text fill="#D9B8FF" font-family="sans-serif" font-size="14" font-weight="bold" lengthAdjust="spacing" textLength="90" x="59" y="200.2686">last_access</text><text fill="#D9B8FF" font-family="sans-serif" font-size="14" lengthAdjust="spacing" textLength="66" x="149" y="200.2686">: duration</text><text fill="#D9B8FF" font-family="sans-serif" font-size="14" font-weight="bold" lengthAdjust="spacing" textLength="90" x="59" y="226.5654">last_update</text><text fill="#D9B8FF" font-family="sans-serif" font-size="14" lengthAdjust="spacing" textLength="66" x="149" y="226.5654">: duration</text><text fill="#D9B8FF" font-family="sans-serif" font-size="14" font-weight="bold" lengthAdjust="spacing" textLength="48" x="59" y="252.8623">mtime</text><text fill="#D9B8FF" font-family="sans-serif" font-size="14" lengthAdjust="spacing" textLength="70" x="107" y="252.8623">: datetime</text><text fill="#D9B8FF" font-family="sans-serif" font-size="14" font-weight="bold" lengthAdjust="spacing" textLength="43" x="59" y="279.1592">name</text><text fill="#D9B8FF" font-family="sans-serif" font-size="14" lengthAdjust="spacing" textLength="48" x="102" y="279.1592">: string</text><text fill="#D9B8FF" font-family="sans-serif" font-size="14" font-weight="bold" lengthAdjust="spacing" textLength="34" x="59" y="305.4561">tags</text><text fill="#D9B8FF" font-family="sans-serif" font-size="14" lengthAdjust="spacing" textLength="171" x="93" y="305.4561">: dictionary[string, string]</text></g><!--reverse link microsoft_resource to azure_network_ip_allocation--><g id="link_microsoft_resource_azure_network_ip_allocation"><path codeLine="48" d="M161.5,557.62 C161.5,590.8 161.5,617.89 161.5,659.72 " fill="none" id="microsoft_resource-backto-azure_network_ip_allocation" style="stroke:#FFAF37;stroke-width:2.0;"/><polygon fill="none" points="161.5,539.62,155.5,557.62,167.5,557.62,161.5,539.62" style="stroke:#FFAF37;stroke-width:2.0;"/></g><!--reverse link resource to microsoft_resource--><g id="link_resource_microsoft_resource"><path codeLine="49" d="M161.5,336.06 C161.5,379.66 161.5,405.98 161.5,438.42 " fill="none" id="resource-backto-microsoft_resource" style="stroke:#FFAF37;stroke-width:2.0;"/><polygon fill="none" points="161.5,318.06,155.5,336.06,167.5,336.06,161.5,318.06" style="stroke:#FFAF37;stroke-width:2.0;"/></g><!--SRC=[ZLFBRjim4BphAmZaPiI0tQHnNFII6YYIIr0qlHM5i2PNCc6H59OhkqwRVoybEGdrYDEJo9dXxioIscY50at91s7Gh95yuhVQba1Wn0sHswzSuKYSPHba5ui- -TLPVbTm3mR5BHOxP2sXh_YnqN9hqNln8QA-WDpcv2ghsl9CO7sWq7AaMXNW_GqpwNN569bHo_LrblML_Q9d5sg-kCA1p952EafcivcQB_kITrkTpFsYUD2FAERnqEuTuy3ce4MZEkcoLaGc1q6V-JSzVWEbjCt5nmZxtdeYYzJ17pQWtBvMPr3uk8rd97HyA74rI8NBQvKjHiLtRuaJMOzEm6D5c5halQDjgiiKYi99OEsi-9DC9g_Rb27tayadeRIizq27dpwy5vkVY_RxA-Xr2IQgaMfL7sdvG9U4cVuz0gK5sfmtDQCjNrs-4dMApW5VhOFV3hJJn1KKppaYxkcOqsX9phkCKqBlAfBOnCCGgkV6xRGFpiCszGoC8yKw9I1l9AgY9d6Di3Oj5exNwu394Qmtct1xNI3quXIa37zqhqF3LAKwseiOCzB7WkbEy3zkyYaPcTZdlzFfzDIJINhIOOta7m00]--></g></svg>

<svg xmlns="http://www.w3.org/2000/svg" width="323" height="899" viewBox="0 0 323 899"><rect width="309" height="231.867" x="7" y="660.14" fill="#3D176E" rx="2.5" ry="2.5" style="stroke:#000d19;stroke-width:.5"/><circle cx="34.6" cy="680.034" r="11" fill="#ADD1B2" style="stroke:#181818;stroke-width:1"/><path d="M37.569 685.675q-.578.297-1.219.438-.64.156-1.344.156-2.5 0-3.828-1.64-1.312-1.657-1.312-4.782t1.312-4.781q1.328-1.657 3.828-1.657.703 0 1.344.157.656.156 1.219.453v2.719q-.625-.579-1.219-.844-.594-.281-1.219-.281-1.343 0-2.031 1.078-.687 1.062-.687 3.156t.687 3.172q.688 1.062 2.031 1.062.625 0 1.219-.265.594-.282 1.219-.86z"/><text x="56.4" y="685.92" fill="#D9B8FF" font-family="Helvetica" font-size="17" textLength="239">azure_network_ip_allocation</text><path d="M8 699.929h307" style="stroke:#000d19;stroke-width:.5"/><text x="18" y="721.924" fill="#D9B8FF" font-family="sans-serif" font-size="14" font-weight="bold" textLength="116">allocation_tags</text><text x="134" y="721.924" fill="#D9B8FF" font-family="sans-serif" font-size="14" textLength="171">: dictionary[string, string]</text><text x="18" y="748.221" fill="#D9B8FF" font-family="sans-serif" font-size="14" font-weight="bold" textLength="140">ipam_allocation_id</text><text x="158" y="748.221" fill="#D9B8FF" font-family="sans-serif" font-size="14" textLength="48">: string</text><text x="18" y="774.518" fill="#D9B8FF" font-family="sans-serif" font-size="14" font-weight="bold" textLength="46">prefix</text><text x="64" y="774.518" fill="#D9B8FF" font-family="sans-serif" font-size="14" textLength="48">: string</text><text x="18" y="800.815" fill="#D9B8FF" font-family="sans-serif" font-size="14" font-weight="bold" textLength="103">prefix_length</text><text x="121" y="800.815" fill="#D9B8FF" font-family="sans-serif" font-size="14" textLength="44">: int64</text><text x="18" y="827.112" fill="#D9B8FF" font-family="sans-serif" font-size="14" font-weight="bold" textLength="88">prefix_type</text><text x="106" y="827.112" fill="#D9B8FF" font-family="sans-serif" font-size="14" textLength="48">: string</text><text x="18" y="853.409" fill="#D9B8FF" font-family="sans-serif" font-size="14" font-weight="bold" textLength="55">subnet</text><text x="73" y="853.409" fill="#D9B8FF" font-family="sans-serif" font-size="14" textLength="48">: string</text><text x="18" y="879.705" fill="#D9B8FF" font-family="sans-serif" font-size="14" font-weight="bold" textLength="122">virtual_network</text><text x="140" y="879.705" fill="#D9B8FF" font-family="sans-serif" font-size="14" textLength="48">: string</text><rect width="214" height="100.383" x="54.5" y="438.76" fill="#3D176E" rx="2.5" ry="2.5" style="stroke:#000d19;stroke-width:.5"/><circle cx="75.8" cy="458.654" r="11" fill="#ADD1B2" style="stroke:#181818;stroke-width:1"/><path d="M78.769 464.295q-.578.297-1.219.438-.64.156-1.344.156-2.5 0-3.828-1.64-1.312-1.657-1.312-4.782t1.312-4.781q1.328-1.656 3.828-1.656.703 0 1.344.156.656.156 1.219.453v2.719q-.625-.579-1.219-.844-.594-.281-1.219-.281-1.344 0-2.031 1.078-.687 1.062-.687 3.156t.687 3.172q.688 1.062 2.031 1.062.625 0 1.219-.265.594-.281 1.219-.86z"/><text x="96.2" y="464.54" fill="#D9B8FF" font-family="Helvetica" font-size="17" textLength="158">microsoft_resource</text><path d="M55.5 478.549h212" style="stroke:#000d19;stroke-width:.5"/><text x="65.5" y="500.544" fill="#D9B8FF" font-family="sans-serif" font-size="14" font-weight="bold" textLength="35">etag</text><text x="100.5" y="500.544" fill="#D9B8FF" font-family="sans-serif" font-size="14" textLength="48">: string</text><text x="65.5" y="526.841" fill="#D9B8FF" font-family="sans-serif" font-size="14" font-weight="bold" textLength="144">provisioning_state</text><text x="209.5" y="526.841" fill="#D9B8FF" font-family="sans-serif" font-size="14" textLength="48">: string</text><rect width="227" height="310.758" x="48" y="7" fill="#3D176E" rx="2.5" ry="2.5" style="stroke:#000d19;stroke-width:.5"/><circle cx="116.75" cy="26.895" r="11" fill="#ADD1B2" style="stroke:#181818;stroke-width:1"/><path d="M119.719 32.535q-.578.297-1.219.438-.64.156-1.344.156-2.5 0-3.828-1.64-1.312-1.657-1.312-4.782t1.312-4.781q1.328-1.656 3.828-1.656.703 0 1.344.156.656.156 1.219.453v2.719q-.625-.578-1.219-.844-.594-.281-1.219-.281-1.344 0-2.031 1.078-.687 1.062-.687 3.156t.687 3.172q.688 1.062 2.031 1.062.625 0 1.219-.265.594-.281 1.219-.86z"/><text x="142.25" y="32.78" fill="#D9B8FF" font-family="Helvetica" font-size="17" textLength="71">resource</text><path d="M49 46.789h225" style="stroke:#000d19;stroke-width:.5"/><text x="59" y="68.784" fill="#D9B8FF" font-family="sans-serif" font-size="14" font-weight="bold" textLength="29">age</text><text x="88" y="68.784" fill="#D9B8FF" font-family="sans-serif" font-size="14" textLength="66">: duration</text><text x="59" y="95.081" fill="#D9B8FF" font-family="sans-serif" font-size="14" font-weight="bold" textLength="43">atime</text><text x="102" y="95.081" fill="#D9B8FF" font-family="sans-serif" font-size="14" textLength="70">: datetime</text><text x="59" y="121.378" fill="#D9B8FF" font-family="sans-serif" font-size="14" font-weight="bold" textLength="43">ctime</text><text x="102" y="121.378" fill="#D9B8FF" font-family="sans-serif" font-size="14" textLength="70">: datetime</text><text x="59" y="147.675" fill="#D9B8FF" font-family="sans-serif" font-size="14" font-weight="bold" textLength="14">id</text><text x="73" y="147.675" fill="#D9B8FF" font-family="sans-serif" font-size="14" textLength="48">: string</text><text x="59" y="173.972" fill="#D9B8FF" font-family="sans-serif" font-size="14" font-weight="bold" textLength="33">kind</text><text x="92" y="173.972" fill="#D9B8FF" font-family="sans-serif" font-size="14" textLength="48">: string</text><text x="59" y="200.269" fill="#D9B8FF" font-family="sans-serif" font-size="14" font-weight="bold" textLength="90">last_access</text><text x="149" y="200.269" fill="#D9B8FF" font-family="sans-serif" font-size="14" textLength="66">: duration</text><text x="59" y="226.565" fill="#D9B8FF" font-family="sans-serif" font-size="14" font-weight="bold" textLength="90">last_update</text><text x="149" y="226.565" fill="#D9B8FF" font-family="sans-serif" font-size="14" textLength="66">: duration</text><text x="59" y="252.862" fill="#D9B8FF" font-family="sans-serif" font-size="14" font-weight="bold" textLength="48">mtime</text><text x="107" y="252.862" fill="#D9B8FF" font-family="sans-serif" font-size="14" textLength="70">: datetime</text><text x="59" y="279.159" fill="#D9B8FF" font-family="sans-serif" font-size="14" font-weight="bold" textLength="43">name</text><text x="102" y="279.159" fill="#D9B8FF" font-family="sans-serif" font-size="14" textLength="48">: string</text><text x="59" y="305.456" fill="#D9B8FF" font-family="sans-serif" font-size="14" font-weight="bold" textLength="34">tags</text><text x="93" y="305.456" fill="#D9B8FF" font-family="sans-serif" font-size="14" textLength="171">: dictionary[string, string]</text><path fill="none" d="M161.5 557.62v102.1m0-120.1-6 18h12zm0-203.56v102.36m0-120.36-6 18h12z" style="stroke:#ffaf37;stroke-width:2"/></svg>
